X:158
T:Nigger Quadrilles #1. Le4.158, The
Q:1/4=100
L:1/8
B:L.Leadley MS#4 c1850
Z:vmp.Mike Hicken 2016 www.village-music-project.org.uk
N: * This note is not clear in the original.
M:2/4
K:G
!p! GGGG|GGGG|GG(GB)|.D.D(EG)|GGGG|GGGG|.G.G(GB)|.D.D(EG)!fermata!|]
!f! b/b/b/b/ bz|!p!.a.g.e.g|!f!a/a/a/a/ az|!p!ddeg|!f!b/b/b/b/ c'b|ageg|a>aba|ddeg||
B/G/B/d/ c/B/A/G/|AGEG|AB/c/ .BA|DDEG|B/G/B/d/ c/B/A/G/|AGEG|AB/c/ BA|DDEG||
!f!GGGG|G3 F/G/ |AGFG|A3D|AAAA|A3 G/A/|B2^c2|d3z "_D.C."|]

